X: 17
T: ROND DE LOUDEAC 11
M: 4/4
L: 1/8
Q:1/4=120
K:C
|BAAG AABB|BAAG A3/2 z/2 B3/2 z/2 |BAAG AABB|BAAG A3/2 z/2 B3/2 z/2 |
Bcd3/2 z/2 edBd|dBA3/2 z/2 GABB|Bcd3/2 z/2 edBd|dBA3/2 z/2 GABB|
